Newaita-dark/actions/24/format-line-spacing-double.svg

<svg height="24" viewBox="0 0 24 24" width="24" xmlns="http://www.w3.org/2000/svg"><g fill="#e0e0e0"><path d="m2.480469 6.140625h3.96875c.273437 0 .496093.222656.496093.496094 0 .273437-.222656.496093-.496093.496093h-3.96875c-.273438 0-.496094-.222656-.496094-.496093 0-.273438.222656-.496094.496094-.496094zm0 0"/><path d="m2.480469 6.140625c.273437 0 .496093.222656.496093.496094v10.914062c0 .277344-.222656.496094-.496093.496094-.273438 0-.496094-.21875-.496094-.496094v-10.914062c0-.273438.222656-.496094.496094-.496094zm0 0"/><path d="m2.480469 17.054688h3.96875c.273437 0 .496093.222656.496093.496093 0 .277344-.222656.496094-.496093.496094h-3.96875c-.273438 0-.496094-.21875-.496094-.496094 0-.273437.222656-.496093.496094-.496093zm0 0"/><path d="m7.441406 3.164062c-.824218 0-1.488281.664063-1.488281 1.488282v3.96875c0 .824218.664063 1.488281 1.488281 1.488281h12.898438c.828125 0 1.492187-.664063 1.492187-1.488281v-3.96875c0-.824219-.664062-1.488282-1.492187-1.488282zm.992188 1.984376h10.914062c.277344 0 .496094.222656.496094.496093v1.984375c0 .277344-.21875.496094-.496094.496094h-10.914062c-.273438 0-.496094-.21875-.496094-.496094v-1.984375c0-.273437.222656-.496093.496094-.496093zm0 0"/><path d="m7.441406 14.078125c-.824218 0-1.488281.664063-1.488281 1.488281v3.96875c0 .828125.664063 1.492188 1.488281 1.492188h12.898438c.828125 0 1.492187-.664063 1.492187-1.492188v-3.96875c0-.824218-.664062-1.488281-1.492187-1.488281zm.992188 1.984375h10.914062c.277344 0 .496094.222656.496094.496094v1.984375c0 .277343-.21875.496093-.496094.496093h-10.914062c-.273438 0-.496094-.21875-.496094-.496093v-1.984375c0-.273438.222656-.496094.496094-.496094zm0 0"/><path d="m2.480469 11.101562h.992187c.273438 0 .496094.222657.496094.496094v.992188c0 .273437-.222656.496094-.496094.496094h-.992187c-.273438 0-.496094-.222657-.496094-.496094v-.992188c0-.273437.222656-.496094.496094-.496094zm0 0"/></g></svg>

<svg xmlns="http://www.w3.org/2000/svg" xmlns:xlink="http://www.w3.org/1999/xlink" width="24px" height="24px" viewBox="0 0 24 24" version="1.1">
<g id="surface1">
     <defs>
  <style id="current-color-scheme" type="text/css">
   .ColorScheme-Text { color:#eeeeee; } .ColorScheme-Highlight { color:#424242; }
  </style>
 </defs>
<path style="fill:currentColor" class="ColorScheme-Text" d="M 2.480469 6.140625 L 6.449219 6.140625 C 6.722656 6.140625 6.945312 6.363281 6.945312 6.636719 C 6.945312 6.910156 6.722656 7.132812 6.449219 7.132812 L 2.480469 7.132812 C 2.207031 7.132812 1.984375 6.910156 1.984375 6.636719 C 1.984375 6.363281 2.207031 6.140625 2.480469 6.140625 Z M 2.480469 6.140625 "/>
     <defs>
  <style id="current-color-scheme" type="text/css">
   .ColorScheme-Text { color:#eeeeee; } .ColorScheme-Highlight { color:#424242; }
  </style>
 </defs>
<path style="fill:currentColor" class="ColorScheme-Text" d="M 2.480469 6.140625 C 2.753906 6.140625 2.976562 6.363281 2.976562 6.636719 L 2.976562 17.550781 C 2.976562 17.828125 2.753906 18.046875 2.480469 18.046875 C 2.207031 18.046875 1.984375 17.828125 1.984375 17.550781 L 1.984375 6.636719 C 1.984375 6.363281 2.207031 6.140625 2.480469 6.140625 Z M 2.480469 6.140625 "/>
     <defs>
  <style id="current-color-scheme" type="text/css">
   .ColorScheme-Text { color:#eeeeee; } .ColorScheme-Highlight { color:#424242; }
  </style>
 </defs>
<path style="fill:currentColor" class="ColorScheme-Text" d="M 2.480469 17.054688 L 6.449219 17.054688 C 6.722656 17.054688 6.945312 17.277344 6.945312 17.550781 C 6.945312 17.828125 6.722656 18.046875 6.449219 18.046875 L 2.480469 18.046875 C 2.207031 18.046875 1.984375 17.828125 1.984375 17.550781 C 1.984375 17.277344 2.207031 17.054688 2.480469 17.054688 Z M 2.480469 17.054688 "/>
     <defs>
  <style id="current-color-scheme" type="text/css">
   .ColorScheme-Text { color:#eeeeee; } .ColorScheme-Highlight { color:#424242; }
  </style>
 </defs>
<path style="fill:currentColor" class="ColorScheme-Text" d="M 7.441406 3.164062 C 6.617188 3.164062 5.953125 3.828125 5.953125 4.652344 L 5.953125 8.621094 C 5.953125 9.445312 6.617188 10.109375 7.441406 10.109375 L 20.339844 10.109375 C 21.167969 10.109375 21.832031 9.445312 21.832031 8.621094 L 21.832031 4.652344 C 21.832031 3.828125 21.167969 3.164062 20.339844 3.164062 Z M 8.433594 5.148438 L 19.347656 5.148438 C 19.625 5.148438 19.84375 5.371094 19.84375 5.644531 L 19.84375 7.628906 C 19.84375 7.90625 19.625 8.125 19.347656 8.125 L 8.433594 8.125 C 8.160156 8.125 7.9375 7.90625 7.9375 7.628906 L 7.9375 5.644531 C 7.9375 5.371094 8.160156 5.148438 8.433594 5.148438 Z M 8.433594 5.148438 "/>
     <defs>
  <style id="current-color-scheme" type="text/css">
   .ColorScheme-Text { color:#eeeeee; } .ColorScheme-Highlight { color:#424242; }
  </style>
 </defs>
<path style="fill:currentColor" class="ColorScheme-Text" d="M 7.441406 14.078125 C 6.617188 14.078125 5.953125 14.742188 5.953125 15.566406 L 5.953125 19.535156 C 5.953125 20.363281 6.617188 21.027344 7.441406 21.027344 L 20.339844 21.027344 C 21.167969 21.027344 21.832031 20.363281 21.832031 19.535156 L 21.832031 15.566406 C 21.832031 14.742188 21.167969 14.078125 20.339844 14.078125 Z M 8.433594 16.0625 L 19.347656 16.0625 C 19.625 16.0625 19.84375 16.285156 19.84375 16.558594 L 19.84375 18.542969 C 19.84375 18.820312 19.625 19.039062 19.347656 19.039062 L 8.433594 19.039062 C 8.160156 19.039062 7.9375 18.820312 7.9375 18.542969 L 7.9375 16.558594 C 7.9375 16.285156 8.160156 16.0625 8.433594 16.0625 Z M 8.433594 16.0625 "/>
     <defs>
  <style id="current-color-scheme" type="text/css">
   .ColorScheme-Text { color:#eeeeee; } .ColorScheme-Highlight { color:#424242; }
  </style>
 </defs>
<path style="fill:currentColor" class="ColorScheme-Text" d="M 2.480469 11.101562 L 3.472656 11.101562 C 3.746094 11.101562 3.96875 11.324219 3.96875 11.597656 L 3.96875 12.589844 C 3.96875 12.863281 3.746094 13.085938 3.472656 13.085938 L 2.480469 13.085938 C 2.207031 13.085938 1.984375 12.863281 1.984375 12.589844 L 1.984375 11.597656 C 1.984375 11.324219 2.207031 11.101562 2.480469 11.101562 Z M 2.480469 11.101562 "/>
</g>
</svg>
